X:152
%%pagewidth 8.5in
%%vocalfont Baskerville10Pro 13
T:St. George for England
M:C
L:1/8
K:A
%%score 1 2
V:1 clef-treble
V:2 clef-bass octave=-1
V:1
A2AAA3B|A=GFEF4&C4D4|FBBB BBB2&^D8|
w:Why should we boast of Ar-thur and his knights, Know-ing well how many* men
V:2
[A,EA]8|[A,EA]4[DA]4|[B,FB]8|
V:1
BAGFG2EE&^D4E4|A2A2A2AA&C8|[^DA]2A,A,E2EE|
w:have en-du-red fights? For be-sides King Ar-thur and Lance-lot du Lake, Or Sir
V:2
[B,FB]4[EB]4|[A,EA]8|A2x6&F4[EGB]4|
V:1
[^DB]2BB BBBB|BAGFG4&^D4E4|A2cc eeee&E8|
w:Tris-tram de Li-o-nel, that fought for La-dies' sake, Read in old his-to-ries and 
V:2
[B,FB]8|[F,FB]4[EGB]4|[CEA]8|
V:1
[Ee]2EE E2FG&x4E2E2|[EA]3E F3[A,C]|[A,D]D [G,B,E]E A,2||!f!zE|
w:there you shall see, How St. George, St. George the Drag-on made to flee. Saint
V:2
[CEA]4[EGB]2[DEB]2|[CEA]3[CA][DA]3A,|F,2E,2A,2||z2|
V:1
[CA]3[DB][Ec]2[CA]2|[DFd]6cB&x6[DG]2|A4[^DA]2GF&C4B,3A,|[G,E]6[G,=DE]2|
w:George he was for England, St.* Den-nis was for France, Sing
V:2
[A,,A,]7[A,,A,]|[B,,B,]3[C,C][D,D]2[E,E]2|[F,F]4[B,,B,]4|[E,E]3[=D,=D][C,C]2[B,,B,]2|
V:1
[A,CA]6[A,CA]2|[A,D]6[A,DF]2|E6E2&B,4[G,B,]4|A,8||
w:Ho-ni soit qui mal y pense
V:2
[A,,A,]3[B,,B,][C,C]2[A,,A,]2|[B,,B,]3[C,C][D,D]2[B,,B,]2|[E,E]4[E,D]4&A2GFx4|[AC]8||

